X: 35550
T: Russians Are Coming, The
R: reel
M: 4/4
K: Gmajor
ABcA d2cA|BGG2 dcA2|ABcA dcA2|BdcA BGG2|
ABcA d2cA|BGG2 d2cA|G~B3 G~c3|cBAc BGG2||
fgaf g2fe|dcAc d2de|fgaf g2fe|dcAc BGG2|
fgaf g2fe|dcAc d2de|f2ff g2gg|a2ag fdcA||

